svgs/sharp-light/signal.svg

<svg xmlns="http://www.w3.org/2000/svg" viewBox="0 0 640 512"><!--! Font Awesome Pro 6.6.0 by @fontawesome - https://fontawesome.com License - https://fontawesome.com/license (Commercial License) Copyright 2024 Fonticons, Inc. --><path d="M592 16l0-16L560 0l0 16 0 480 0 16 32 0 0-16 0-480zM464 96l-32 0 0 16 0 384 0 16 32 0 0-16 0-384 0-16zM336 208l0-16-32 0 0 16 0 288 0 16 32 0 0-16 0-288zM208 288l-32 0 0 16 0 192 0 16 32 0 0-16 0-192 0-16zM80 384l-32 0 0 16 0 96 0 16 32 0 0-16 0-96 0-16z"/></svg>

<svg xmlns="http://www.w3.org/2000/svg" viewBox="0 0 640 512"><!--! Font Awesome Pro 6.4.0 by @fontawesome - https://fontawesome.com License - https://fontawesome.com/license (Commercial License) Copyright 2023 Fonticons, Inc. --><path d="M592 16V0H560V16 496v16h32V496 16zM464 96H432v16V496v16h32V496 112 96zM336 208V192H304v16V496v16h32V496 208zM208 288H176v16V496v16h32V496 304 288zM80 384H48v16 96 16H80V496 400 384z"/></svg>
